website/00-comres/11-resources/02-images/vscode-logo.svg

<svg viewBox="0 0 100 100" fill="none" xmlns="http://www.w3.org/2000/svg">
<mask id="mask0" mask-type="alpha" maskUnits="userSpaceOnUse" x="0" y="0" width="100" height="100">
<path fill-rule="evenodd" clip-rule="evenodd" d="M70.9119 99.3171C72.4869 99.9307 74.2828 99.8914 75.8725 99.1264L96.4608 89.2197C98.6242 88.1787 100 85.9892 100 83.5872V16.4133C100 14.0113 98.6243 11.8218 96.4609 10.7808L75.8725 0.873756C73.7862 -0.130129 71.3446 0.11576 69.5135 1.44695C69.252 1.63711 69.0028 1.84943 68.769 2.08341L29.3551 38.0415L12.1872 25.0096C10.589 23.7965 8.35363 23.8959 6.86933 25.2461L1.36303 30.2549C-0.452552 31.9064 -0.454633 34.7627 1.35853 36.417L16.2471 50.0001L1.35853 63.5832C-0.454633 65.2374 -0.452552 68.0938 1.36303 69.7453L6.86933 74.7541C8.35363 76.1043 10.589 76.2037 12.1872 74.9905L29.3551 61.9587L68.769 97.9167C69.3925 98.5406 70.1246 99.0104 70.9119 99.3171ZM75.0152 27.2989L45.1091 50.0001L75.0152 72.7012V27.2989Z" fill="white"/>
</mask>
<g mask="url(#mask0)">
<path d="M96.4614 10.7962L75.8569 0.875542C73.4719 -0.272773 70.6217 0.211611 68.75 2.08333L1.29858 63.5832C-0.515693 65.2373 -0.513607 68.0937 1.30308 69.7452L6.81272 74.754C8.29793 76.1042 10.5347 76.2036 12.1338 74.9905L93.3609 13.3699C96.086 11.3026 100 13.2462 100 16.6667V16.4275C100 14.0265 98.6246 11.8378 96.4614 10.7962Z" fill="#0065A9"/>
<g filter="url(#filter0_d)">
<path d="M96.4614 89.2038L75.8569 99.1245C73.4719 100.273 70.6217 99.7884 68.75 97.9167L1.29858 36.4169C-0.515693 34.7627 -0.513607 31.9063 1.30308 30.2548L6.81272 25.246C8.29793 23.8958 10.5347 23.7964 12.1338 25.0095L93.3609 86.6301C96.086 88.6974 100 86.7538 100 83.3334V83.5726C100 85.9735 98.6246 88.1622 96.4614 89.2038Z" fill="#007ACC"/>
</g>
<g filter="url(#filter1_d)">
<path d="M75.8578 99.1263C73.4721 100.274 70.6219 99.7885 68.75 97.9166C71.0564 100.223 75 98.5895 75 95.3278V4.67213C75 1.41039 71.0564 -0.223106 68.75 2.08329C70.6219 0.211402 73.4721 -0.273666 75.8578 0.873633L96.4587 10.7807C98.6234 11.8217 100 14.0112 100 16.4132V83.5871C100 85.9891 98.6234 88.1786 96.4586 89.2196L75.8578 99.1263Z" fill="#1F9CF0"/>
</g>
<g style="mix-blend-mode:overlay" opacity="0.25">
<path fill-rule="evenodd" clip-rule="evenodd" d="M70.8511 99.3171C72.4261 99.9306 74.2221 99.8913 75.8117 99.1264L96.4 89.2197C98.5634 88.1787 99.9392 85.9892 99.9392 83.5871V16.4133C99.9392 14.0112 98.5635 11.8217 96.4001 10.7807L75.8117 0.873695C73.7255 -0.13019 71.2838 0.115699 69.4527 1.44688C69.1912 1.63705 68.942 1.84937 68.7082 2.08335L29.2943 38.0414L12.1264 25.0096C10.5283 23.7964 8.29285 23.8959 6.80855 25.246L1.30225 30.2548C-0.513334 31.9064 -0.515415 34.7627 1.29775 36.4169L16.1863 50L1.29775 63.5832C-0.515415 65.2374 -0.513334 68.0937 1.30225 69.7452L6.80855 74.754C8.29285 76.1042 10.5283 76.2036 12.1264 74.9905L29.2943 61.9586L68.7082 97.9167C69.3317 98.5405 70.0638 99.0104 70.8511 99.3171ZM74.9544 27.2989L45.0483 50L74.9544 72.7012V27.2989Z" fill="url(#paint0_linear)"/>
</g>
</g>
<defs>
<filter id="filter0_d" x="-8.39411" y="15.8291" width="116.727" height="92.2456" filterUnits="userSpaceOnUse" color-interpolation-filters="sRGB">
<feFlood flood-opacity="0" result="BackgroundImageFix"/>
<feColorMatrix in="SourceAlpha" type="matrix" values="0 0 0 0 0 0 0 0 0 0 0 0 0 0 0 0 0 0 127 0"/>
<feOffset/>
<feGaussianBlur stdDeviation="4.16667"/>
<feColorMatrix type="matrix" values="0 0 0 0 0 0 0 0 0 0 0 0 0 0 0 0 0 0 0.25 0"/>
<feBlend mode="overlay" in2="BackgroundImageFix" result="effect1_dropShadow"/>
<feBlend mode="normal" in="SourceGraphic" in2="effect1_dropShadow" result="shape"/>
</filter>
<filter id="filter1_d" x="60.4167" y="-8.07558" width="47.9167" height="116.151" filterUnits="userSpaceOnUse" color-interpolation-filters="sRGB">
<feFlood flood-opacity="0" result="BackgroundImageFix"/>
<feColorMatrix in="SourceAlpha" type="matrix" values="0 0 0 0 0 0 0 0 0 0 0 0 0 0 0 0 0 0 127 0"/>
<feOffset/>
<feGaussianBlur stdDeviation="4.16667"/>
<feColorMatrix type="matrix" values="0 0 0 0 0 0 0 0 0 0 0 0 0 0 0 0 0 0 0.25 0"/>
<feBlend mode="overlay" in2="BackgroundImageFix" result="effect1_dropShadow"/>
<feBlend mode="normal" in="SourceGraphic" in2="effect1_dropShadow" result="shape"/>
</filter>
<linearGradient id="paint0_linear" x1="49.9392" y1="0.257812" x2="49.9392" y2="99.7423" gradientUnits="userSpaceOnUse">
<stop stop-color="white"/>
<stop offset="1" stop-color="white" stop-opacity="0"/>
</linearGradient>
</defs>
</svg>

<svg xmlns="http://www.w3.org/2000/svg" viewBox="0 0 100 100" fill="none" xmlns:v="https://vecta.io/nano"><mask id="A" mask-type="alpha" maskUnits="userSpaceOnUse" x="0" y="0" width="100" height="100"><path fill-rule="evenodd" d="M70.912 99.317c1.575.614 3.371.574 4.961-.191l20.588-9.907A6.25 6.25 0 0 0 100 83.587V16.413a6.25 6.25 0 0 0-3.539-5.632L75.873.874c-2.086-1.004-4.528-.758-6.359.573a6.24 6.24 0 0 0-.744.636L29.355 38.042 12.187 25.01c-1.598-1.213-3.834-1.114-5.318.236l-5.506 5.009a4.17 4.17 0 0 0-.004 6.162L16.247 50 1.359 63.583a4.17 4.17 0 0 0 .004 6.162l5.506 5.009c1.484 1.35 3.72 1.45 5.318.236l17.168-13.032 39.414 35.958c.623.624 1.356 1.094 2.143 1.4zm4.103-72.018L45.109 50l29.906 22.701V27.299z" fill="#fff"/></mask><g mask="url(#A)"><path d="M96.461 10.796L75.857.876a6.23 6.23 0 0 0-7.107 1.208l-67.451 61.5a4.17 4.17 0 0 0 .004 6.162l5.51 5.009c1.485 1.35 3.722 1.45 5.321.236L93.361 13.37c2.725-2.067 6.639-.124 6.639 3.297v-.239a6.25 6.25 0 0 0-3.539-5.631z" fill="#0065a9"/><g filter="url(#B)"><path d="M96.461 89.204l-20.604 9.921a6.23 6.23 0 0 1-7.107-1.208l-67.451-61.5a4.17 4.17 0 0 1 .004-6.162l5.51-5.009c1.485-1.35 3.722-1.45 5.321-.236L93.361 86.63c2.725 2.067 6.639.124 6.639-3.297v.239a6.25 6.25 0 0 1-3.539 5.631z" fill="#007acc"/></g><g filter="url(#C)"><path d="M75.858 99.126a6.23 6.23 0 0 1-7.108-1.21c2.306 2.306 6.25.673 6.25-2.589V4.672c0-3.262-3.944-4.895-6.25-2.589C70.622.211 73.472-.274 75.858.874l20.601 9.907A6.25 6.25 0 0 1 100 16.413v67.174a6.25 6.25 0 0 1-3.541 5.632l-20.601 9.907z" fill="#1f9cf0"/></g><g style="mix-blend-mode:overlay" opacity=".25"><path fill-rule="evenodd" d="M70.851 99.317c1.575.614 3.371.574 4.961-.191L96.4 89.22a6.25 6.25 0 0 0 3.539-5.633V16.413a6.25 6.25 0 0 0-3.539-5.633L75.812.874c-2.086-1.004-4.528-.758-6.359.573-.261.19-.511.402-.744.636L29.294 38.041 12.126 25.01c-1.598-1.213-3.834-1.114-5.318.236l-5.506 5.009a4.17 4.17 0 0 0-.004 6.162L16.186 50 1.298 63.583a4.17 4.17 0 0 0 .004 6.162l5.506 5.009c1.484 1.35 3.72 1.45 5.318.236l17.168-13.032 39.414 35.958a6.22 6.22 0 0 0 2.143 1.4zm4.103-72.018L45.048 50l29.906 22.701V27.299z" fill="url(#D)"/></g></g><defs><filter id="B" x="-8.394" y="15.829" width="116.727" height="92.246" filterUnits="userSpaceOnUse" color-interpolation-filters="sRGB"><feFlood flood-opacity="0" result="A"/><feColorMatrix in="SourceAlpha" values="0 0 0 0 0 0 0 0 0 0 0 0 0 0 0 0 0 0 127 0"/><feOffset/><feGaussianBlur stdDeviation="4.167"/><feColorMatrix values="0 0 0 0 0 0 0 0 0 0 0 0 0 0 0 0 0 0 0.25 0"/><feBlend mode="overlay" in2="A"/><feBlend in="SourceGraphic"/></filter><filter id="C" x="60.417" y="-8.076" width="47.917" height="116.151" filterUnits="userSpaceOnUse" color-interpolation-filters="sRGB"><feFlood flood-opacity="0" result="A"/><feColorMatrix in="SourceAlpha" values="0 0 0 0 0 0 0 0 0 0 0 0 0 0 0 0 0 0 127 0"/><feOffset/><feGaussianBlur stdDeviation="4.167"/><feColorMatrix values="0 0 0 0 0 0 0 0 0 0 0 0 0 0 0 0 0 0 0.25 0"/><feBlend mode="overlay" in2="A"/><feBlend in="SourceGraphic"/></filter><linearGradient id="D" x1="49.939" y1=".258" x2="49.939" y2="99.742" gradientUnits="userSpaceOnUse"><stop stop-color="#fff"/><stop offset="1" stop-color="#fff" stop-opacity="0"/></linearGradient></defs></svg>
